app/client/src/assets/icons/blueprintjs/16px/new-person.svg

<svg xmlns="http://www.w3.org/2000/svg" xml:space="preserve" viewBox="0 0 16 16"><path d="M9.12 12.69c-1.17-.53-1.01-.85-1.05-1.29-.01-.06-.01-.12-.01-.19.4-.37.73-.87.94-1.44 0 0 .01-.03.01-.04.05-.14.09-.27.12-.4.27-.06.43-.36.49-.63.06-.11.19-.39.16-.7-.04-.41-.2-.6-.38-.68v-.07c0-.51-.05-1.25-.14-1.74-.02-.13-.05-.27-.09-.4-.17-.6-.53-1.14-1.01-1.52C7.66 3.2 6.96 3 6.33 3c-.62 0-1.33.2-1.82.59-.49.38-.85.92-1.02 1.52-.04.13-.07.26-.09.4-.09.49-.13 1.23-.13 1.74v.06c-.19.08-.35.27-.39.68-.03.31.1.59.16.7.06.28.22.59.5.64.03.14.07.27.11.4 0 .01.01.02.01.02v.01c.22.59.55 1.1.96 1.46 0 .06-.01.12-.01.17-.04.44.08.76-1.09 1.29-1.17.53-2.93 1.1-3.29 1.95-.35.87-.2 1.37-.2 1.37h12.6s.15-.5-.22-1.36c-.36-.85-2.12-1.42-3.29-1.95zM14.89 2h-1V1c0-.55-.45-1-1-1s-1 .45-1 1v1h-1c-.55 0-1 .45-1 1s.45 1 1 1h1v1c0 .55.45 1 1 1s1-.45 1-1V4h1c.55 0 1-.45 1-1s-.45-1-1-1z"/></svg>

<?xml version="1.0" encoding="utf-8"?>
<!-- Generator: Adobe Illustrator 18.1.0, SVG Export Plug-In . SVG Version: 6.00 Build 0)  -->
<svg version="1.1" id="Layer_1" xmlns="http://www.w3.org/2000/svg" xmlns:xlink="http://www.w3.org/1999/xlink" x="0px" y="0px"
	 viewBox="0 0 16 16" enable-background="new 0 0 16 16" xml:space="preserve">
<g id="new_person">
	<g>
		<path d="M9.12,12.69c-1.17-0.53-1.01-0.85-1.05-1.29c-0.01-0.06-0.01-0.12-0.01-0.19c0.4-0.37,0.73-0.87,0.94-1.44
			c0,0,0.01-0.03,0.01-0.04C9.06,9.59,9.1,9.46,9.13,9.33C9.4,9.27,9.56,8.97,9.62,8.7c0.06-0.11,0.19-0.39,0.16-0.7
			C9.74,7.59,9.58,7.4,9.4,7.32c0-0.02,0-0.05,0-0.07C9.4,6.74,9.35,6,9.26,5.51c-0.02-0.13-0.05-0.27-0.09-0.4
			C9,4.51,8.64,3.97,8.16,3.59C7.66,3.2,6.96,3,6.33,3C5.71,3,5,3.2,4.51,3.59C4.02,3.97,3.66,4.51,3.49,5.11
			C3.45,5.24,3.42,5.37,3.4,5.51C3.31,6,3.27,6.74,3.27,7.25c0,0.02,0,0.04,0,0.06C3.08,7.39,2.92,7.58,2.88,7.99
			c-0.03,0.31,0.1,0.59,0.16,0.7c0.06,0.28,0.22,0.59,0.5,0.64C3.57,9.47,3.61,9.6,3.65,9.73c0,0.01,0.01,0.02,0.01,0.02l0,0.01
			c0.22,0.59,0.55,1.1,0.96,1.46c0,0.06-0.01,0.12-0.01,0.17c-0.04,0.44,0.08,0.76-1.09,1.29c-1.17,0.53-2.93,1.1-3.29,1.95
			C-0.12,15.5,0.03,16,0.03,16h12.6c0,0,0.15-0.5-0.22-1.36C12.05,13.79,10.29,13.22,9.12,12.69z M14.89,2h-1V1c0-0.55-0.45-1-1-1
			s-1,0.45-1,1v1h-1c-0.55,0-1,0.45-1,1s0.45,1,1,1h1v1c0,0.55,0.45,1,1,1s1-0.45,1-1V4h1c0.55,0,1-0.45,1-1S15.44,2,14.89,2z"/>
	</g>
</g>
</svg>
